res/skins/Tango/buttons/btn_stars_visible.svg

<?xml version="1.0" encoding="UTF-8" standalone="no"?>
<!-- Created with Inkscape (http://www.inkscape.org/) -->

<svg
   xmlns:dc="http://purl.org/dc/elements/1.1/"
   xmlns:cc="http://creativecommons.org/ns#"
   xmlns:rdf="http://www.w3.org/1999/02/22-rdf-syntax-ns#"
   xmlns:svg="http://www.w3.org/2000/svg"
   xmlns="http://www.w3.org/2000/svg"
   version="1.1"
   width="15"
   height="15"
   viewBox="0 0 15 15"
   id="svg3535">
  <metadata
     id="metadata3543">
    <rdf:RDF>
      <cc:Work
         rdf:about="">
        <dc:format>image/svg+xml</dc:format>
        <dc:type
           rdf:resource="http://purl.org/dc/dcmitype/StillImage" />
        <dc:title></dc:title>
      </cc:Work>
    </rdf:RDF>
  </metadata>
  <defs
     id="defs3541" />
  <path
     d="M 9.9988547,14.311428 7.0273872,10.175568 2.1825302,11.744745 5.1977325,7.6406604 2.2082138,3.5178297 7.0431788,5.1172257 10.040412,0.99999968 10.013382,6.0925651 14.855293,7.6708102 10.003622,9.2187929 z"
     id="path3537"
     style="fill:#d2d2d2;fill-opacity:1" />
</svg>

<!-- Created with Inkscape (http://www.inkscape.org/) -->
<svg id="svg3535" width="15" height="15" version="1.1" viewBox="0 0 15 15" xmlns="http://www.w3.org/2000/svg"><path id="path3537" d="m9.9989 14.311-2.9715-4.1359-4.8449 1.5692 3.0152-4.1041-2.9895-4.1228 4.835 1.5994 2.9972-4.1172-0.02703 5.0926 4.8419 1.5782-4.8517 1.548z" fill="#d2d2d2"/></svg>
